X: 93
T: Timour the Tartar (Peter Street)
T: Reel, A
L: 1/16
M: 4/4
K: A
|: A4 (3c2B2A2 e2A2 (3c2B2A2| e2A2a2A2 g2A2f2A2| A4 (3c2B2A2 e2A2c2A2| B2E2d2E2 c2E2B2E2| 
A4(3c2B2A2 e2A2 (3c2B2A2| e2A2a2A2 g2A2f2A2| e2f2e2c2 e2a2e2c2| B2A2B2c2 A8:| 
|: E4(3G2F2E2 B2E2 (3G2F2E2| B2E2d2E2 c2E2B2E2| A4(3c2B2A2 e2A2 (3c2B2A2| e2A2a2A2 g2A2f2A2| 
e2f2e2c2 a2g2a2f2| e2f2e2c2 a2g2a2f2| e2c2a2g2 f2e2d2c2| B2A2G2F2 E2F2G2F2:| 
D: Natalie MacMaster, My Roots Are Showing
